Newaita-dark/.DP/16/youtube-indicator-light-sync1.svg

<svg xmlns="http://www.w3.org/2000/svg" xmlns:xlink="http://www.w3.org/1999/xlink" width="16px" height="16px" viewBox="0 0 16 16" version="1.1">
<g id="surface1">
<path style=" stroke:none;fill-rule:nonzero;fill:rgb(93.333334%,93.333334%,93.333334%);fill-opacity:1;" d="M 10.523438 10.519531 C 10.433594 10.574219 10.363281 10.660156 10.332031 10.773438 C 10.324219 10.800781 10.320312 10.828125 10.320312 10.855469 C 10.191406 11.402344 10.265625 12 10.566406 12.527344 C 10.871094 13.050781 11.351562 13.414062 11.890625 13.578125 C 11.914062 13.589844 11.941406 13.601562 11.96875 13.605469 C 12.191406 13.667969 12.417969 13.535156 12.476562 13.316406 C 12.535156 13.09375 12.40625 12.867188 12.183594 12.808594 C 12.15625 12.800781 12.128906 12.796875 12.101562 12.796875 C 11.765625 12.683594 11.46875 12.453125 11.277344 12.117188 C 11.082031 11.78125 11.03125 11.40625 11.101562 11.0625 C 11.113281 11.039062 11.125 11.011719 11.132812 10.984375 C 11.191406 10.765625 11.058594 10.539062 10.839844 10.480469 C 10.726562 10.449219 10.617188 10.46875 10.523438 10.519531 Z M 10.523438 10.519531 "/>
<path style=" stroke:none;fill-rule:nonzero;fill:rgb(93.333334%,93.333334%,93.333334%);fill-opacity:1;" d="M 14.613281 12.222656 C 14.703125 12.167969 14.777344 12.082031 14.804688 11.96875 C 14.8125 11.941406 14.816406 11.914062 14.820312 11.886719 C 14.945312 11.335938 14.871094 10.742188 14.570312 10.214844 C 14.265625 9.691406 13.785156 9.328125 13.246094 9.164062 C 13.222656 9.152344 13.195312 9.140625 13.167969 9.132812 C 12.945312 9.074219 12.722656 9.207031 12.660156 9.425781 C 12.601562 9.648438 12.734375 9.875 12.953125 9.933594 C 12.980469 9.941406 13.007812 9.945312 13.035156 9.945312 C 13.371094 10.054688 13.667969 10.289062 13.863281 10.625 C 14.054688 10.960938 14.109375 11.332031 14.035156 11.679688 C 14.023438 11.703125 14.011719 11.730469 14.007812 11.757812 C 13.945312 11.976562 14.078125 12.203125 14.296875 12.261719 C 14.410156 12.292969 14.519531 12.273438 14.613281 12.222656 Z M 14.613281 12.222656 "/>
<path style=" stroke:none;fill-rule:nonzero;fill:rgb(93.333334%,93.333334%,93.333334%);fill-opacity:1;" d="M 7.917969 2.910156 C 7.917969 2.910156 3.585938 2.910156 2.503906 3.195312 C 1.921875 3.351562 1.445312 3.832031 1.285156 4.425781 C 1 5.507812 1 7.753906 1 7.753906 C 1 7.753906 1 10.011719 1.285156 11.082031 C 1.445312 11.675781 1.910156 12.140625 2.503906 12.300781 C 3.597656 12.597656 7.917969 12.597656 7.917969 12.597656 C 7.917969 12.597656 8.992188 12.597656 10.203125 12.5625 C 10.023438 12.203125 9.921875 11.800781 9.921875 11.371094 C 9.921875 9.90625 11.101562 8.726562 12.570312 8.726562 C 13.472656 8.726562 14.265625 9.171875 14.742188 9.859375 C 14.839844 8.839844 14.839844 7.765625 14.839844 7.765625 C 14.839844 7.765625 14.851562 5.507812 14.554688 4.425781 C 14.394531 3.832031 13.925781 3.363281 13.332031 3.207031 C 12.25 2.910156 7.917969 2.910156 7.917969 2.910156 Z M 6.597656 5.21875 C 6.601562 5.21875 6.609375 5.21875 6.613281 5.21875 C 6.671875 5.222656 6.726562 5.238281 6.773438 5.265625 L 10.457031 7.441406 C 10.675781 7.570312 10.675781 7.886719 10.457031 8.015625 L 6.773438 10.195312 C 6.550781 10.324219 6.269531 10.164062 6.269531 9.90625 L 6.269531 5.554688 C 6.269531 5.371094 6.417969 5.222656 6.597656 5.21875 Z M 6.597656 5.21875 "/>
</g>
</svg>

<svg xmlns="http://www.w3.org/2000/svg" width="16" height="16"><g fill="#bdbdbd"><path d="M10.523 10.52a.426.426 0 0 0-.203.335 2.304 2.304 0 0 0 .246 1.672 2.31 2.31 0 0 0 1.325 1.051c.023.012.05.024.078.027a.413.413 0 1 0 .133-.809 1.491 1.491 0 0 1-.825-.679 1.496 1.496 0 0 1-.175-1.055.414.414 0 0 0-.262-.582.42.42 0 0 0-.317.04zm0 0M14.613 12.223a.411.411 0 0 0 .192-.254c.008-.028.011-.055.015-.082.125-.551.051-1.145-.25-1.672a2.31 2.31 0 0 0-1.324-1.05.466.466 0 0 0-.078-.032.418.418 0 0 0-.508.293.416.416 0 0 0 .375.52c.336.109.633.343.828.679.192.336.246.707.172 1.055a.265.265 0 0 0-.027.078.408.408 0 0 0 .289.504.42.42 0 0 0 .316-.04zm0 0"/><path d="M7.918 2.91s-4.332 0-5.414.285a1.76 1.76 0 0 0-1.219 1.23C1 5.509 1 7.755 1 7.755s0 2.258.285 3.328a1.73 1.73 0 0 0 1.219 1.219c1.094.297 5.414.297 5.414.297s1.074 0 2.285-.036a2.65 2.65 0 0 1-.281-1.19 2.64 2.64 0 0 1 2.648-2.645 2.63 2.63 0 0 1 2.172 1.132c.098-1.02.098-2.093.098-2.093s.012-2.258-.285-3.34a1.728 1.728 0 0 0-1.223-1.219C12.25 2.91 7.918 2.91 7.918 2.91zM6.598 5.22h.015c.059.004.114.02.16.047l3.684 2.175a.333.333 0 0 1 0 .575l-3.684 2.18a.336.336 0 0 1-.503-.29V5.555c0-.184.148-.332.328-.336zm0 0"/></g></svg>
